icons/1_Primary/Ting.svg

<svg width="1024" height="1024" viewBox="0 0 1024 1024" fill="none" xmlns="http://www.w3.org/2000/svg">
<g clip-path="url(#clip0_2_3657)">
<path d="M512 1024C794.77 1024 1024 794.77 1024 512C1024 229.23 794.77 0 512 0C229.23 0 0 229.23 0 512C0 794.77 229.23 1024 512 1024Z" fill="#9ABEFF"/>
<path d="M405.12 404.16C389.12 404.16 377.6 391.04 377.6 375.04C377.6 359.04 389.12 345.92 405.12 345.92C421.12 345.92 432.64 359 432.64 375C432.64 391 421.12 404.16 405.12 404.16ZM583.36 602.24C589.12 602.24 593.6 597.76 593.28 592.32V465C593.28 436.84 575.36 418.28 547.52 418.28C528.32 418.28 512.64 426.28 498.52 441.64L496 429.76C495 424.64 491.84 420.76 485.76 420.76H464.32C461.696 420.781 459.184 421.833 457.329 423.689C455.473 425.544 454.421 428.055 454.4 430.68V592C454.421 594.624 455.473 597.135 457.329 598.991C459.184 600.847 461.696 601.899 464.32 601.92H492.48C495.104 601.899 497.616 600.847 499.471 598.991C501.327 597.135 502.379 594.624 502.4 592V495.36C502.4 473.92 513.92 458.56 529.92 458.56C541.44 458.56 545.28 465.28 545.28 474.24V592.32C545.301 594.944 546.353 597.455 548.209 599.311C550.064 601.167 552.576 602.219 555.2 602.24H583.36ZM688.64 678.08C722.88 678.08 768 663.68 768 616.32C768 582.72 744.64 566.4 708.16 566.4H673.28C667.52 566.4 661.44 565.76 661.44 559.4C661.44 556.2 662.44 554.92 663.68 552.4C669.363 553.682 675.175 554.299 681 554.24C725.8 554.24 753 527.68 753 486.4C753 474.24 748.2 464.96 742.76 455.68L752.36 453.44C757.48 452.16 759.36 450.88 759.36 442.56V430.72C759.36 424 756.48 420.16 747.84 420.16H703.68C696 420.16 688.68 418.56 680.68 418.56C637.16 418.56 609 442.88 609 486.08C609 509.08 618.28 527.36 633.64 538.88C625.32 546.56 618.92 556.48 618.92 568.32C618.92 596.16 643.56 602.24 663.08 602.24H701.8C720.04 602.24 724.8 605.76 724.8 618.56C724.8 630.72 713.6 640.32 689.6 640.32C674.24 640.32 659.2 636.48 655.36 621.44C653.76 616 652.16 612.44 646.08 612.16L619.52 611.16C614.08 610.84 609.6 616.28 609.6 621.72C610.88 664.92 648.96 678.04 688.6 678.04L688.64 678.08ZM706.88 485.76C706.88 512.96 694.08 518.4 681.6 518.4C667.84 518.4 656.6 514.24 656.6 485.76C656.6 458.88 667.48 454.76 681.6 454.76C695 454.72 706.56 458.56 706.88 485.76ZM419.88 420.76H333.12V367.68C333.14 366.372 332.897 365.073 332.406 363.86C331.915 362.647 331.185 361.546 330.26 360.62C329.334 359.695 328.233 358.965 327.02 358.474C325.807 357.982 324.508 357.74 323.2 357.76H295C293.673 357.728 292.354 357.96 291.118 358.444C289.882 358.927 288.755 359.651 287.802 360.575C286.849 361.498 286.089 362.602 285.567 363.822C285.044 365.041 284.77 366.353 284.76 367.68V420.48H265.92C263.279 420.618 260.788 421.751 258.948 423.651C257.108 425.55 256.054 428.076 256 430.72V447C256.021 449.624 257.073 452.135 258.929 453.991C260.784 455.847 263.296 456.899 265.92 456.92H284.8V558.4C284.8 586.88 296.96 604.48 328 604.48C341.12 604.48 355.2 602.24 363.84 599.36C368.64 597.76 370.84 594.24 370.24 589.44L365.76 566.08C364.76 560 360.96 557.76 355.2 559.36C351.611 560.024 347.97 560.359 344.32 560.36C337.6 560.36 333.12 555.88 333.12 545.96V457.28H381.76V592.28C381.781 594.904 382.833 597.415 384.689 599.271C386.544 601.127 389.056 602.179 391.68 602.2H419.84C422.464 602.179 424.976 601.127 426.831 599.271C428.687 597.415 429.739 594.904 429.76 592.28V430.72C430.08 425.28 425.6 420.8 419.84 420.8L419.88 420.76Z" fill="white"/>
</g>
<defs>
<clipPath id="clip0_2_3657">
<rect width="1024" height="1024" fill="white"/>
</clipPath>
</defs>
</svg>

<svg width="1024" height="1024" fill="none" xmlns="http://www.w3.org/2000/svg"><g clip-path="url(#a)"><path d="M512 1024c282.77 0 512-229.23 512-512S794.77 0 512 0 0 229.23 0 512s229.23 512 512 512Z" fill="#9ABEFF"/><path d="M405.12 404.16c-16 0-27.52-13.12-27.52-29.12s11.52-29.12 27.52-29.12S432.64 359 432.64 375c0 16-11.52 29.16-27.52 29.16Zm178.24 198.08c5.76 0 10.24-4.48 9.92-9.92V465c0-28.16-17.92-46.72-45.76-46.72-19.2 0-34.88 8-49 23.36L496 429.76c-1-5.12-4.16-9-10.24-9h-21.44a9.999 9.999 0 0 0-9.92 9.92V592a10 10 0 0 0 9.92 9.92h28.16a9.999 9.999 0 0 0 9.92-9.92v-96.64c0-21.44 11.52-36.8 27.52-36.8 11.52 0 15.36 6.72 15.36 15.68v118.08a10 10 0 0 0 9.92 9.92h28.16Zm105.28 75.84c34.24 0 79.36-14.4 79.36-61.76 0-33.6-23.36-49.92-59.84-49.92h-34.88c-5.76 0-11.84-.64-11.84-7 0-3.2 1-4.48 2.24-7a75.242 75.242 0 0 0 17.32 1.84c44.8 0 72-26.56 72-67.84 0-12.16-4.8-21.44-10.24-30.72l9.6-2.24c5.12-1.28 7-2.56 7-10.88v-11.84c0-6.72-2.88-10.56-11.52-10.56h-44.16c-7.68 0-15-1.6-23-1.6-43.52 0-71.68 24.32-71.68 67.52 0 23 9.28 41.28 24.64 52.8-8.32 7.68-14.72 17.6-14.72 29.44 0 27.84 24.64 33.92 44.16 33.92h38.72c18.24 0 23 3.52 23 16.32 0 12.16-11.2 21.76-35.2 21.76-15.36 0-30.4-3.84-34.24-18.88-1.6-5.44-3.2-9-9.28-9.28l-26.56-1c-5.44-.32-9.92 5.12-9.92 10.56 1.28 43.2 39.36 56.32 79 56.32l.04.04Zm18.24-192.32c0 27.2-12.8 32.64-25.28 32.64-13.76 0-25-4.16-25-32.64 0-26.88 10.88-31 25-31 13.4-.04 24.96 3.8 25.28 31Zm-287-65h-86.76v-53.08a9.783 9.783 0 0 0-2.86-7.06 9.773 9.773 0 0 0-7.06-2.86H295a9.983 9.983 0 0 0-3.882.684 9.993 9.993 0 0 0-6.358 9.236v52.8h-18.84a10.467 10.467 0 0 0-9.92 10.24V447a10 10 0 0 0 9.92 9.92h18.88V558.4c0 28.48 12.16 46.08 43.2 46.08 13.12 0 27.2-2.24 35.84-5.12 4.8-1.6 7-5.12 6.4-9.92l-4.48-23.36c-1-6.08-4.8-8.32-10.56-6.72a59.89 59.89 0 0 1-10.88 1c-6.72 0-11.2-4.48-11.2-14.4v-88.68h48.64v135a10 10 0 0 0 9.92 9.92h28.16a9.999 9.999 0 0 0 9.92-9.92V430.72c.32-5.44-4.16-9.92-9.92-9.92l.04-.04Z" fill="#fff"/></g><defs><clipPath id="a"><path fill="#fff" d="M0 0h1024v1024H0z"/></clipPath></defs></svg>
